X: 13941
T: Fraher's
R: jig
M: 6/8
K: Dmixolydian
|:~A3 GEA|~D3 GED|~A3 GEA|DED DEG|
~A3 GEA|~D3 GED|~A3 GEA|1 DED DEG:|2 DED D2A||
|:AGA d2A|d2A AGE|GAB ~c3|BAG ~A3|
dAA def|dcA GEG|~A3 GEA|1 DED D2A:|2 DED D3||

